X:110
T: Gallant Tipperary Boys (a)
S: "Music of Ireland - The Big Session" (DJ Taylor)
Z: B.Black
L: 1/8
M: 12/8
R: slide
K: D
dcd F2 A B2 A F2 A|d2 d ede f3 def|\
fgg fgf|efe d2 B|BAG FGA B2 A ABd :|
a2 a fef g2 g efg|a^ga fed e3 A2 g|\
agf g2 f efe d2 B|BAG FGA B2 A ABd :|
